X:1
T:Alex's Rock Slide
L:1/8
M:C|
R:Reel
C:T. S. Macdonald
K:A
CEAB ceag | afec dB B2 | CEAB ceaf | ecae cA A2 :|
|: aecA =gdB=G | fdec dB B2 |1 aecA =gdB=G | EBed cA A2 :|2 CEAB ceaf | ecae cA A2 ||
|: (3cBA (3ecA (3acA (3ecA | (3cBA ac dB B2 | (3cBA (3ecA (3acA (3ecA | (3Bcd ed cA A2 :|
AECA, =G,B,D=G | FDEC DB, B,2 | AECA, =G,B,D=G | ECDB, CA, A,2 | aecA =GBd=g | fdec dB B2 |aecA =GDB,=G, | EBeg aA A2 |]

